X: 412
T: Hardy man the fiddler
C:anon.
O:Ireland
B:Francis O'Neill: "The Dance Music of Ireland" (1907) no. 412
R:Hop, slip jig
Z:Transcribed by Frank Nordberg - http://www.musicaviva.com
F:http://www.musicaviva.com/abc/tunes/ireland/oneill-1001/oneill-1001-041
2.abc
M:9/8
L:1/8
K:D
A2 ({B/A}G) FDE F2G|A3 AGA cAG|({A/B/}A2)G FDE F2G|Add ded cAG:|(A<d)d d2
e f2f|
Add ded cAG|(A<d)d d2e f2g|agf ged cAG|(A<d)d d2e f2f|Add ded cAG|dcA cde
 f2g|agf ged cAG|]
W:
W:
W:  From Musica Viva - http://www.musicaviva.com
W:  the Internet center for free sheet music downloads.


